<?xml version="1.0" encoding="UTF-8"?>
<map version="1.10" tiledversion="1.11.0" orientation="orthogonal" renderorder="right-down" width="20" height="15" tilewidth="16" tileheight="16" infinite="0" nextlayerid="6" nextobjectid="3">
 <tileset firstgid="1" source="../../Placeholder/tileset/Debug.tsx"/>
 <tileset firstgid="11" source="../../Tilesets/Indoor/Office.tsx"/>
 <tileset firstgid="111" source="../../Tilesets/Indoor/Furniture.tsx"/>
 <layer id="1" name="Gbox" width="20" height="15">
  <properties>
   <property name="unity:SortingLayer" value="Background"/>
  </properties>
  <data encoding="csv">
0,0,0,0,0,0,0,0,0,0,0,0,0,0,0,0,0,0,0,0,
0,5,5,5,5,5,5,5,5,5,5,5,5,5,5,5,5,5,5,0,
0,5,5,5,5,5,5,5,5,5,5,5,5,5,5,5,5,5,5,0,
0,3,3,3,3,3,3,3,3,3,3,3,3,3,3,3,3,3,3,0,
0,3,3,3,3,3,3,3,3,3,3,3,3,3,3,3,3,3,3,0,
0,3,3,3,3,3,3,3,3,3,3,3,3,3,3,3,3,3,3,0,
0,3,3,3,3,3,3,3,3,3,3,3,3,3,3,3,3,3,3,0,
0,3,3,3,3,3,3,3,3,3,3,3,3,3,3,3,3,3,3,0,
0,3,3,3,3,3,3,3,3,3,3,3,3,3,3,3,3,3,3,0,
0,3,3,3,3,3,3,3,3,3,3,3,3,3,3,3,3,3,3,0,
0,3,3,3,3,3,3,3,3,3,3,3,3,3,3,3,3,3,3,0,
0,3,3,3,3,3,3,3,3,3,3,3,3,3,3,3,3,3,3,0,
0,3,3,3,3,3,3,3,3,3,3,3,3,3,3,3,3,3,3,0,
0,3,3,3,3,3,3,3,3,3,3,3,3,3,3,3,3,3,3,0,
0,0,0,0,0,0,0,0,0,3,3,0,0,0,0,0,0,0,0,0
</data>
 </layer>
 <layer id="3" name="BG" width="20" height="15">
  <properties>
   <property name="unity:SortingLayer" value="Background"/>
  </properties>
  <data encoding="csv">
0,0,0,0,0,0,0,0,0,0,0,0,0,0,0,0,0,0,0,0,
0,11,11,11,14,14,11,14,14,11,11,11,11,14,14,11,11,11,11,0,
0,21,21,21,24,24,21,24,24,21,21,21,21,24,24,21,21,21,21,0,
0,33,33,33,33,33,33,33,33,33,32,32,32,32,32,32,32,32,32,0,
0,33,33,33,33,33,33,33,33,33,32,32,32,32,32,32,32,32,32,0,
0,33,33,33,33,33,33,33,33,33,32,32,32,32,32,32,32,32,32,0,
0,33,33,33,33,33,33,33,33,33,32,32,32,32,32,32,32,32,32,0,
0,33,33,33,33,33,33,33,33,33,32,32,32,32,32,32,32,32,32,0,
0,67,68,68,68,68,68,68,68,68,68,68,68,68,68,68,68,68,69,0,
0,77,78,78,78,78,78,78,78,78,78,78,78,78,78,78,78,78,79,0,
0,77,78,78,78,78,78,78,78,78,78,78,78,78,78,78,78,78,79,0,
0,77,78,78,78,78,78,78,78,78,78,78,78,78,78,78,78,78,79,0,
0,77,78,78,78,78,78,78,78,78,78,78,78,78,78,78,78,78,79,0,
0,87,88,88,88,88,88,88,88,80,60,88,88,88,88,88,88,88,89,0,
0,0,0,0,0,0,0,0,0,77,79,0,0,0,0,0,0,0,0,0
</data>
 </layer>
 <layer id="4" name="BG Deco" width="20" height="15">
  <properties>
   <property name="unity:SortingLayer" value="Background"/>
  </properties>
  <data encoding="csv">
0,0,0,0,0,0,0,0,0,0,0,0,0,0,0,0,0,0,0,0,
0,148,149,0,0,0,142,0,0,0,0,0,0,0,0,0,142,150,0,0,
0,156,157,0,0,0,0,0,0,0,61,153,145,154,144,146,155,158,0,0,
0,164,165,0,116,117,117,117,118,0,61,161,162,162,143,162,163,166,0,0,
0,0,0,0,124,125,125,125,126,0,61,0,0,0,0,0,0,0,0,0,
0,0,0,0,124,125,125,125,126,0,61,0,0,0,0,0,0,0,0,0,
0,0,0,0,132,133,133,133,134,0,71,0,0,0,0,0,0,0,0,0,
0,0,0,0,0,0,0,0,0,0,81,82,82,82,85,0,84,82,82,0,
0,0,0,0,0,0,0,0,0,0,0,0,0,0,0,0,0,0,0,0,
0,0,0,0,0,0,0,0,0,0,0,0,0,0,0,0,0,0,0,0,
0,0,0,0,0,0,0,0,0,0,0,0,0,0,0,0,0,0,0,0,
0,0,0,0,0,0,0,0,0,0,0,0,0,0,0,0,0,0,0,0,
0,0,0,0,0,0,0,0,0,0,0,0,0,0,0,0,0,0,0,0,
0,0,0,0,0,0,0,0,0,0,0,0,0,0,0,0,0,0,0,0,
0,0,0,0,0,0,0,0,0,0,0,0,0,0,0,0,0,0,0,0
</data>
 </layer>
 <layer id="5" name="Tabletops" width="20" height="15">
  <properties>
   <property name="unity:SortingLayer" value="Foreground"/>
  </properties>
  <data encoding="csv">
0,0,0,0,0,0,0,0,0,0,0,0,0,0,0,0,0,0,0,0,
0,0,0,0,0,0,0,0,0,0,0,0,0,0,0,0,0,0,0,0,
0,0,0,0,0,0,0,0,0,0,0,0,0,0,0,0,0,0,0,0,
0,0,0,0,116,117,117,117,118,0,0,0,0,0,0,0,0,0,0,0,
0,0,0,0,0,0,0,0,0,0,0,0,0,0,0,0,0,0,0,0,
0,0,0,0,0,0,0,0,0,0,0,0,0,0,0,0,0,0,0,0,
0,0,0,0,0,0,0,0,0,0,0,42,42,42,75,0,74,42,42,0,
0,0,0,0,0,0,0,0,0,0,0,0,0,0,0,0,0,0,0,0,
0,0,0,0,0,0,0,0,0,0,0,0,0,0,0,0,0,0,0,0,
0,0,0,0,0,0,0,0,0,0,0,0,0,0,0,0,0,0,0,0,
0,0,0,0,0,0,0,0,0,0,0,0,0,0,0,0,0,0,0,0,
0,0,0,0,0,0,0,0,0,0,0,0,0,0,0,0,0,0,0,0,
0,0,0,0,0,0,0,0,0,0,0,0,0,0,0,0,0,0,0,0,
0,0,0,0,0,0,0,0,0,0,0,0,0,0,0,0,0,0,0,0,
0,0,0,0,0,0,0,0,0,0,0,0,0,0,0,0,0,0,0,0
</data>
 </layer>
 <objectgroup id="2" name="GboxCollisions">
  <object id="1" x="144" y="224">
   <polygon points="0,0 0,16 -144,16 -144,-192 176,-192 176,16 32,16 32,0 160,0 160,-96 116,-95.1973 116,-112 160,-112 160,-176 144.052,-176 144,-168 32,-168 32,-112 92,-112 92,-96 16,-96 16,-176 -96,-176 -96,-168 -128,-168 -128,0"/>
  </object>
  <object id="2" x="64" y="64" width="80" height="44"/>
 </objectgroup>
</map>
