<?xml version="1.0" encoding="UTF-8"?>
<map version="1.10" tiledversion="1.11.0" orientation="orthogonal" renderorder="right-down" width="20" height="15" tilewidth="16" tileheight="16" infinite="0" nextlayerid="7" nextobjectid="19">
 <tileset firstgid="1" source="../../Placeholder/tileset/Debug.tsx"/>
 <tileset firstgid="11" source="../../Tilesets/Indoor/Office.tsx"/>
 <tileset firstgid="111" source="../../Tilesets/Indoor/Furniture.tsx"/>
 <layer id="1" name="Gbox" width="20" height="15">
  <properties>
   <property name="unity:SortingLayer" value="Background"/>
  </properties>
  <data encoding="csv">
0,0,0,0,0,0,0,0,0,0,0,0,0,0,0,0,0,0,0,0,
0,5,5,5,5,5,5,5,5,5,5,5,5,5,5,5,5,5,5,0,
0,5,5,5,5,5,5,5,5,5,5,5,5,5,5,5,5,5,5,0,
0,3,3,3,3,3,3,5,3,3,3,3,5,3,3,3,3,3,3,0,
0,3,3,3,3,3,3,3,3,3,3,3,3,3,3,3,3,3,3,0,
0,3,3,3,3,3,3,3,3,3,3,3,3,3,3,3,3,3,3,0,
0,3,3,3,3,3,3,5,3,3,3,3,5,3,3,3,3,3,3,0,
0,3,3,3,3,3,3,5,3,3,3,3,5,3,3,3,3,3,3,0,
0,3,3,3,3,3,3,5,3,3,3,3,5,3,3,3,3,3,3,0,
0,3,3,3,3,3,3,5,3,3,3,3,5,3,3,3,3,3,3,0,
0,3,3,3,3,3,3,5,3,3,3,3,5,3,3,3,3,3,3,0,
0,3,3,3,3,3,3,5,3,3,3,3,5,3,3,3,3,3,3,0,
0,3,3,3,3,3,3,5,3,3,3,3,5,3,3,3,3,3,3,0,
0,3,3,3,3,3,3,5,3,3,3,3,5,3,3,3,3,3,3,0,
0,0,0,0,0,0,0,0,0,3,3,0,0,0,0,0,0,0,0,0
</data>
 </layer>
 <layer id="4" name="BG" width="20" height="15">
  <properties>
   <property name="unity:SortingLayer" value="Background"/>
  </properties>
  <data encoding="csv">
0,0,0,0,0,0,0,0,0,0,0,0,0,0,0,0,0,0,0,0,
0,11,14,11,11,14,11,40,13,13,13,13,40,11,14,11,11,14,11,0,
0,21,24,21,21,24,21,13,23,23,23,23,13,21,24,21,21,24,21,0,
0,32,32,32,32,32,32,23,33,33,33,33,23,32,32,32,32,32,32,0,
0,32,32,32,32,32,32,33,33,33,33,33,33,32,32,32,32,32,32,0,
0,32,32,32,32,32,32,33,33,33,33,33,33,32,32,32,32,32,32,0,
0,32,32,32,32,32,32,40,33,33,33,33,40,32,32,32,32,32,32,0,
0,67,68,68,68,68,69,40,33,33,33,33,40,67,68,68,68,68,69,0,
0,77,78,78,78,78,79,40,33,33,33,33,40,77,78,78,78,78,79,0,
0,77,78,78,78,78,79,40,33,33,33,33,40,77,78,78,78,78,79,0,
0,77,78,78,78,78,79,40,33,33,33,33,40,77,78,78,78,78,79,0,
0,77,78,78,78,78,79,40,33,33,33,33,40,77,78,78,78,78,79,0,
0,77,78,78,78,78,79,40,33,33,33,33,40,77,78,78,78,78,79,0,
0,87,88,88,88,88,89,40,33,33,33,33,40,87,88,88,88,88,89,0,
0,0,0,0,0,0,0,0,0,33,33,0,0,0,0,0,0,0,0,0
</data>
 </layer>
 <layer id="5" name="Bg Deco" width="20" height="15">
  <properties>
   <property name="unity:SortingLayer" value="Background"/>
  </properties>
  <data encoding="csv">
0,0,0,0,0,0,0,0,0,0,0,0,0,0,0,0,0,0,0,0,
0,150,0,0,0,0,0,0,0,0,142,0,0,150,0,0,0,0,0,0,
0,158,153,145,155,0,0,0,0,0,0,0,0,158,153,145,155,0,0,0,
0,166,161,162,163,0,0,0,0,0,0,0,0,166,161,162,163,0,0,0,
0,0,0,0,0,0,0,0,0,0,0,0,0,0,0,0,0,0,0,0,
0,0,0,0,0,0,0,0,0,0,0,0,0,0,0,0,0,0,0,0,
0,82,82,82,83,0,0,0,0,0,0,0,0,0,0,81,82,82,82,0,
0,0,0,0,0,0,0,0,140,0,0,0,0,0,0,0,0,0,0,0,
0,0,0,0,0,0,0,0,0,0,0,0,0,0,0,0,0,0,0,0,
0,0,124,126,0,0,0,0,0,0,0,140,0,0,0,0,124,126,0,0,
0,0,124,126,0,0,0,0,0,0,0,0,0,0,0,0,124,126,0,0,
0,0,132,134,0,0,0,0,0,0,0,0,0,0,0,0,132,134,0,0,
0,0,0,0,0,0,0,0,0,0,0,0,0,0,0,0,0,0,0,0,
0,0,0,0,0,0,0,0,0,0,0,0,0,0,0,0,0,0,0,0,
0,0,0,0,0,0,0,0,0,0,0,0,0,0,0,0,0,0,0,0
</data>
 </layer>
 <layer id="6" name="FG" width="20" height="15">
  <properties>
   <property name="unity:SortingLayer" value="Foreground"/>
  </properties>
  <data encoding="csv">
0,0,0,0,0,0,0,0,0,0,0,0,0,0,0,0,0,0,0,0,
0,0,0,0,0,0,0,0,0,0,0,0,0,0,0,0,0,0,0,0,
0,0,0,0,0,0,0,0,0,0,0,0,0,0,0,0,0,0,0,0,
0,0,0,0,0,0,0,0,0,0,0,0,0,0,0,0,0,0,0,0,
0,0,0,0,0,0,0,0,0,0,0,0,0,0,0,0,0,0,0,0,
0,42,42,42,43,0,0,0,0,0,0,0,0,0,0,41,42,42,42,0,
0,0,0,0,0,0,0,0,141,0,0,0,0,0,0,0,0,0,0,0,
0,0,0,0,0,0,0,0,0,0,0,0,0,0,0,0,0,0,0,0,
0,0,116,118,0,0,0,0,0,0,0,141,0,0,0,0,116,118,0,0,
0,0,0,0,0,0,0,0,0,0,0,0,0,0,0,0,0,0,0,0,
0,0,0,0,0,0,0,0,0,0,0,0,0,0,0,0,0,0,0,0,
0,0,0,0,0,0,0,0,0,0,0,0,0,0,0,0,0,0,0,0,
0,0,0,0,0,0,0,0,0,0,0,0,0,0,0,0,0,0,0,0,
0,0,0,0,0,0,0,0,0,0,0,0,0,0,0,0,0,0,0,0,
0,0,0,0,0,0,0,0,0,0,0,0,0,0,0,0,0,0,0,0
</data>
 </layer>
 <objectgroup id="3" name="GboxCollisions">
  <object id="1" x="16" y="224" width="128" height="16"/>
  <object id="2" x="176" y="224" width="128" height="16"/>
  <object id="3" x="304" y="48" width="16" height="176"/>
  <object id="4" x="0" y="48" width="16" height="176"/>
  <object id="5" x="16" y="32" width="288" height="16"/>
  <object id="6" x="192" y="48" width="16" height="16"/>
  <object id="7" x="112" y="48" width="16" height="16"/>
  <object id="8" x="112" y="96" width="16" height="128"/>
  <object id="9" x="192" y="96" width="16" height="128"/>
  <object id="10" x="16" y="48" width="64" height="8"/>
  <object id="11" x="208" y="48" width="64" height="12"/>
  <object id="12" x="16" y="96" width="64" height="16"/>
  <object id="13" x="240" y="96" width="64" height="16"/>
  <object id="14" x="256" y="144" width="32" height="44"/>
  <object id="15" x="32" y="144" width="32" height="44"/>
  <object id="17" x="128" y="112" width="16" height="12"/>
  <object id="18" x="176" y="144" width="16" height="12"/>
 </objectgroup>
</map>
