<?xml version="1.0" encoding="UTF-8"?>
<map version="1.10" tiledversion="1.11.0" orientation="orthogonal" renderorder="right-down" width="9" height="13" tilewidth="16" tileheight="16" infinite="0" nextlayerid="3" nextobjectid="2">
 <tileset firstgid="1" source="../../Placeholder/tileset/Debug.tsx"/>
 <layer id="1" name="Gbox" width="9" height="13">
  <properties>
   <property name="unity:SortingLayer" value="Background"/>
  </properties>
  <data encoding="csv">
0,5,5,5,5,5,5,5,0,
0,5,5,5,5,5,5,5,0,
0,3,3,3,3,3,3,3,0,
0,3,3,3,3,3,3,3,0,
0,3,3,3,3,3,3,3,0,
0,10,10,10,10,10,10,10,0,
0,3,3,3,3,3,3,3,0,
0,3,3,3,3,3,3,3,0,
0,3,3,3,3,3,3,3,0,
0,3,3,3,3,3,3,3,0,
0,3,3,3,3,3,3,3,0,
0,3,3,3,3,3,3,3,0,
0,0,0,3,3,3,0,0,0
</data>
 </layer>
 <objectgroup id="2" name="GboxCollisions">
  <object id="1" x="48" y="208">
   <polygon points="0,0 -48,0 -48,-128 96,-128 96,0 48,0 48,-16 80,-16 80,-112 -32,-112 -32,-16 0,-16"/>
  </object>
 </objectgroup>
</map>
