<?xml version="1.0" encoding="UTF-8"?>
<map version="1.10" tiledversion="1.11.0" orientation="orthogonal" renderorder="right-down" width="42" height="22" tilewidth="16" tileheight="16" infinite="0" nextlayerid="3" nextobjectid="18">
 <tileset firstgid="1" source="../../Placeholder/tileset/Debug.tsx"/>
 <layer id="1" name="Gbox" width="42" height="22">
  <properties>
   <property name="unity:SortingLayer" value="Background"/>
  </properties>
  <data encoding="csv">
0,0,0,0,0,0,0,0,0,0,0,0,0,0,0,0,0,0,0,0,0,0,0,0,0,0,0,0,0,0,0,0,0,0,0,0,0,0,0,0,0,0,
0,5,5,5,5,5,5,5,5,5,5,5,5,5,5,5,5,5,5,5,5,5,5,5,5,5,5,5,5,5,5,5,5,5,5,5,5,0,0,0,0,0,
0,5,5,10,10,10,10,10,5,5,10,10,10,10,10,5,5,5,5,5,5,5,5,5,5,5,5,10,10,10,10,10,5,5,5,5,5,0,0,0,0,0,
0,3,3,3,3,3,3,3,3,3,3,3,3,3,3,3,3,10,3,3,3,3,3,3,10,3,3,3,3,3,3,3,3,3,3,3,3,0,0,0,0,0,
0,3,3,3,3,3,3,3,3,3,3,3,3,3,3,3,3,10,3,3,3,3,3,3,10,3,3,3,3,3,3,3,3,3,3,3,3,0,0,0,0,0,
0,3,3,10,10,10,10,10,3,3,10,10,10,10,10,3,3,10,3,3,3,3,3,3,10,3,3,10,10,10,10,10,3,3,3,3,3,0,0,0,0,0,
0,3,3,3,3,3,3,3,3,3,3,3,3,3,3,3,3,10,10,10,10,10,10,10,10,3,3,3,3,3,3,3,3,3,3,3,3,0,0,0,0,0,
0,3,3,3,3,3,3,3,3,3,3,3,3,3,3,3,3,3,3,3,3,3,3,3,3,3,3,3,3,3,3,3,3,3,3,3,3,0,0,0,0,0,
0,3,3,10,10,10,10,10,3,3,10,10,10,10,10,3,3,3,3,3,3,3,3,3,3,3,3,10,10,10,10,10,3,3,3,3,3,0,0,0,0,0,
0,3,3,3,3,3,3,3,3,3,3,3,3,3,3,3,3,3,3,3,10,10,10,10,10,3,3,3,3,3,3,3,3,3,3,3,3,0,0,0,0,0,
0,3,3,3,3,3,3,3,3,3,3,3,3,3,3,3,3,3,3,3,3,3,3,3,3,3,3,3,3,3,3,3,3,3,3,3,3,0,0,0,0,0,
0,3,3,10,10,10,10,10,3,3,10,10,10,10,10,3,3,3,3,3,3,3,3,3,3,3,3,10,10,10,10,10,3,3,3,3,3,0,0,0,0,0,
0,3,3,3,3,3,3,3,3,3,3,3,3,3,3,3,3,3,3,3,10,10,10,10,10,3,3,3,3,3,3,3,3,3,3,3,3,0,0,0,0,0,
0,3,3,3,3,3,3,3,3,3,3,3,3,3,3,3,3,3,3,3,3,3,3,3,3,3,3,3,3,3,3,3,3,3,3,3,3,0,0,0,0,0,
0,5,5,5,5,5,5,5,5,5,5,5,5,5,3,3,5,5,3,3,3,3,3,3,3,3,3,10,10,10,10,10,3,3,3,3,3,0,0,0,0,0,
0,3,3,3,3,3,3,3,3,3,3,3,3,3,3,3,3,5,3,3,10,10,10,10,10,3,3,3,3,3,3,3,3,3,3,3,3,0,0,0,0,0,
0,3,3,3,3,3,3,3,3,3,3,3,3,3,3,3,3,5,3,3,3,3,3,3,3,3,3,3,3,3,3,3,3,3,3,3,3,0,0,0,0,0,
0,3,3,3,3,3,3,3,3,3,3,3,3,3,3,3,3,5,3,3,3,3,3,3,3,3,3,10,10,10,10,10,3,3,3,3,3,0,0,0,0,0,
0,3,3,3,3,3,3,3,3,3,3,3,3,3,3,3,3,5,3,3,10,10,10,10,10,3,3,3,3,3,3,3,3,3,3,3,3,0,0,0,0,0,
0,3,3,3,3,3,3,3,3,3,3,3,3,3,3,3,3,5,3,3,3,3,3,3,3,3,3,3,3,3,3,3,3,3,3,3,3,0,0,0,0,0,
0,3,3,3,3,3,3,3,3,3,3,3,3,3,3,3,3,5,3,3,3,3,3,3,3,3,3,3,3,3,3,3,3,3,3,3,3,0,0,0,0,0,
0,0,0,0,0,0,0,0,0,0,0,0,0,0,0,0,0,0,0,0,0,0,0,0,0,3,3,0,0,0,0,0,0,0,0,0,0,0,0,0,0,0
</data>
 </layer>
 <objectgroup id="2" name="Gbox Collisions">
  <object id="1" x="400" y="336">
   <polygon points="0,0 0,16 -400,16 -400,-304 208,-304 208,16 32,16 32,0 192,0 192,-288 0,-288 0,-224 -128,-224 -128,-288 -384,-288 -384,-112 -176,-112 -176,-96 -384,-96 -384,0 -128,0 -128,-96 -144,-96 -144,-112 -112,-112 -112,0 0,0"/>
  </object>
  <object id="2" x="48" y="80" width="80" height="16"/>
  <object id="3" x="160" y="80" width="80" height="16"/>
  <object id="4" x="48" y="128" width="80" height="16"/>
  <object id="5" x="160" y="128" width="80" height="16"/>
  <object id="6" x="432" y="80" width="80" height="16"/>
  <object id="7" x="320" y="144" width="80" height="16"/>
  <object id="8" x="432" y="128" width="80" height="16"/>
  <object id="9" x="432" y="176" width="80" height="16"/>
  <object id="10" x="320" y="192" width="80" height="16"/>
  <object id="11" x="160" y="176" width="80" height="16"/>
  <object id="12" x="48" y="176" width="80" height="16"/>
  <object id="13" x="432" y="224" width="80" height="16"/>
  <object id="14" x="432" y="272" width="80" height="16"/>
  <object id="15" x="320" y="240" width="80" height="16"/>
  <object id="17" x="320" y="288" width="80" height="16"/>
 </objectgroup>
</map>
