<?xml version="1.0" encoding="UTF-8"?>
<map version="1.10" tiledversion="1.11.0" orientation="orthogonal" renderorder="right-down" width="30" height="15" tilewidth="16" tileheight="16" infinite="0" nextlayerid="4" nextobjectid="7">
 <tileset firstgid="1" source="../../Placeholder/tileset/Debug.tsx"/>
 <layer id="1" name="GB" width="30" height="15">
  <properties>
   <property name="unity:SortingLayer" value="Background"/>
  </properties>
  <data encoding="csv">
5,5,5,5,5,5,5,5,5,5,5,5,5,5,5,5,5,5,5,5,5,5,5,5,5,5,5,5,5,5,
5,3,3,3,3,10,10,10,10,10,10,10,10,10,10,10,10,10,10,10,3,3,3,3,5,5,5,5,5,5,
5,3,3,3,3,10,10,10,10,10,10,10,10,10,10,10,10,10,10,10,3,3,3,3,5,5,5,5,5,5,
5,3,3,3,3,10,10,10,10,10,10,10,10,10,10,10,10,10,10,10,3,3,3,3,5,5,5,5,5,5,
5,3,3,3,3,10,10,10,10,10,10,10,10,10,10,10,10,10,10,10,3,3,3,3,5,5,5,5,5,5,
5,3,3,3,3,10,10,10,10,10,10,10,10,10,10,10,10,10,10,10,3,3,3,3,5,5,5,5,5,5,
5,3,3,3,3,10,10,10,10,10,10,10,10,10,10,10,10,10,10,10,3,3,3,3,5,5,5,5,5,5,
5,3,3,3,3,3,3,3,3,3,3,3,3,3,3,3,3,3,3,3,3,3,3,3,5,5,5,5,5,5,
5,3,3,3,3,3,3,3,3,3,3,3,3,3,3,3,3,3,3,3,3,3,3,3,5,5,10,5,5,5,
5,3,3,3,3,3,3,3,3,3,3,3,3,3,3,3,3,3,3,3,3,3,3,3,5,5,10,5,5,5,
5,3,3,3,3,3,3,3,3,3,3,3,3,3,3,3,3,3,3,3,3,3,3,3,3,3,3,3,3,5,
5,3,3,3,3,3,3,3,3,3,3,3,3,3,3,3,3,3,3,3,3,3,3,3,3,3,3,3,3,5,
5,3,3,3,3,3,3,3,3,3,3,3,3,3,3,3,3,3,3,3,3,3,3,3,3,3,3,3,3,5,
5,3,3,3,3,3,3,3,3,3,3,3,3,3,3,3,3,3,3,3,3,3,3,3,3,3,3,3,3,5,
5,5,5,5,5,5,5,5,5,5,5,5,5,5,5,5,5,5,5,5,5,5,5,5,5,5,5,5,5,5
</data>
 </layer>
 <objectgroup id="3" name="GB collisions">
  <object id="1" x="384" y="16" width="80" height="144"/>
  <object id="2" x="464" y="160" width="16" height="64"/>
  <object id="4" x="16" y="224" width="448" height="16"/>
  <object id="5" x="0" y="16" width="16" height="208"/>
  <object id="6" x="16" y="0" width="368" height="16"/>
 </objectgroup>
</map>
